Sources/FrostedUI/Resources/Icons.xcassets/expand12.imageset/expand-12.svg

<svg width="12" height="12" viewBox="0 0 12 12" fill="none" xmlns="http://www.w3.org/2000/svg" data-fui-icon="true">
  <path
    d="M6.71973 6.71973C7.01262 6.42686 7.48739 6.42684 7.78027 6.71973L10.2451 9.18457V7.54785C10.2453 7.13395 10.5812 6.79807 10.9951 6.79785C11.4092 6.79785 11.7449 7.13382 11.7451 7.54785V10.9951C11.7451 11.4093 11.4093 11.7451 10.9951 11.7451H7.54883C7.13461 11.7451 6.79883 11.4093 6.79883 10.9951C6.799 10.5811 7.13472 10.2451 7.54883 10.2451H9.18457L6.71973 7.78027C6.42685 7.4874 6.42689 7.01262 6.71973 6.71973ZM4.45117 0.254883C4.86539 0.254882 5.20117 0.590669 5.20117 1.00488C5.201 1.41895 4.86528 1.75488 4.45117 1.75488H2.81543L5.28027 4.21973C5.57315 4.5126 5.57311 4.98738 5.28027 5.28027C4.98738 5.57314 4.51261 5.57316 4.21973 5.28027L1.75488 2.81543V4.45215C1.75467 4.86605 1.41878 5.20193 1.00488 5.20215C0.590804 5.20215 0.255098 4.86618 0.254883 4.45215V1.00488C0.254883 0.590672 0.590672 0.254886 1.00488 0.254883H4.45117Z"
    fill="currentColor"
  />
</svg>

<svg xmlns="http://www.w3.org/2000/svg" width="12" height="12" fill="none" data-fui-icon="true" viewBox="0 0 12 12"><path fill="currentColor" d="M6.72 6.72a.75.75 0 0 1 1.06 0l2.465 2.465V7.548a.75.75 0 0 1 1.5 0v3.447a.75.75 0 0 1-.75.75H7.55a.75.75 0 0 1 0-1.5h1.636L6.72 7.78a.75.75 0 0 1 0-1.06M4.45.255a.75.75 0 1 1 0 1.5H2.815L5.28 4.22a.75.75 0 0 1-1.06 1.06L1.755 2.815v1.637a.75.75 0 0 1-1.5 0V1.005a.75.75 0 0 1 .75-.75z"/></svg>
